icons/evolvere-blue-folders-flat-vivid-dark-fallback/apps/64/extra-finder.svg

<?xml version="1.0" encoding="UTF-8" standalone="no"?>
<!-- Created with Inkscape (http://www.inkscape.org/) -->

<svg
   xmlns:dc="http://purl.org/dc/elements/1.1/"
   xmlns:cc="http://creativecommons.org/ns#"
   xmlns:rdf="http://www.w3.org/1999/02/22-rdf-syntax-ns#"
   xmlns:svg="http://www.w3.org/2000/svg"
   xmlns="http://www.w3.org/2000/svg"
   xmlns:sodipodi="http://sodipodi.sourceforge.net/DTD/sodipodi-0.dtd"
   xmlns:inkscape="http://www.inkscape.org/namespaces/inkscape"
   width="64"
   height="64"
   id="svg13094"
   version="1.1"
   inkscape:version="0.91+devel r"
   sodipodi:docname="extra-finder.svg">
  <sodipodi:namedview
     id="base"
     pagecolor="#ffffff"
     bordercolor="#666666"
     borderopacity="1.0"
     inkscape:pageopacity="0"
     inkscape:pageshadow="2"
     inkscape:zoom="11.313709"
     inkscape:cx="34.463052"
     inkscape:cy="31.131508"
     inkscape:document-units="px"
     inkscape:current-layer="svg13094"
     showgrid="false"
     inkscape:snap-bbox="true"
     inkscape:bbox-paths="true"
     inkscape:bbox-nodes="true"
     inkscape:snap-bbox-edge-midpoints="true"
     inkscape:snap-bbox-midpoints="true"
     inkscape:object-paths="true"
     inkscape:snap-intersection-paths="true"
     inkscape:object-nodes="true"
     inkscape:snap-smooth-nodes="true"
     inkscape:snap-midpoints="true"
     inkscape:snap-object-midpoints="true"
     inkscape:snap-center="true"
     showguides="true"
     inkscape:guide-bbox="true"
     inkscape:window-width="1920"
     inkscape:window-height="1023"
     inkscape:window-x="-10"
     inkscape:window-y="35"
     inkscape:window-maximized="1"
     inkscape:snap-global="true"
     fit-margin-top="0"
     fit-margin-left="0"
     fit-margin-right="0"
     fit-margin-bottom="0"
     showborder="true"
     inkscape:showpageshadow="false"
     inkscape:snap-page="true">
    <inkscape:grid
       type="xygrid"
       id="grid3075"
       empspacing="5"
       visible="true"
       enabled="true"
       snapvisiblegridlinesonly="true"
       originx="0px"
       originy="18px" />
  </sodipodi:namedview>
  <defs
     id="defs13096" />
  <metadata
     id="metadata13099">
    <rdf:RDF>
      <cc:Work
         rdf:about="">
        <dc:format>image/svg+xml</dc:format>
        <dc:type
           rdf:resource="http://purl.org/dc/dcmitype/StillImage" />
        <dc:title></dc:title>
      </cc:Work>
    </rdf:RDF>
  </metadata>
  <path
     id="path3867"
     d="m 0,4 0,30 0,28 2,2 30,0 30,0 2,-2 L 64,34 64,4 32,4 0,4 z"
     style="color:#000000;fill:#9cb0e7;fill-opacity:1;fill-rule:nonzero;stroke:none;stroke-width:2.28571415;marker:none;visibility:visible;display:inline;overflow:visible;enable-background:accumulate"
     inkscape:connector-curvature="0" />
  <path
     style="color:#000000;fill:#3b74cd;fill-opacity:1;fill-rule:nonzero;stroke:none;stroke-width:2.28571415;marker:none;visibility:visible;display:inline;overflow:visible;enable-background:accumulate"
     d="M 0 4 L 0 34 L 0 62 L 2 64 L 32 64 L 39.625 64 C 37.092865 56.561178 36.128771 45.223516 39 39 L 28.09375 39 C 28.09375 30.005994 32.723088 15.701749 41.0625 4 L 32 4 L 0 4 z "
     id="path3443" />
  <path
     id="path3928"
     d="M 2,0 0,1 0,4 32,4 64,4 64,1 62,0 32,0 2,0 z"
     style="color:#000000;fill:#c7d4ff;fill-opacity:1;fill-rule:nonzero;stroke:none;stroke-width:2.28571415000000000;marker:none;visibility:visible;display:inline;overflow:visible;enable-background:accumulate"
     inkscape:connector-curvature="0" />
  <path
     style="color:#000000;fill:#6f9fff;fill-opacity:1;fill-rule:nonzero;stroke:none;stroke-width:2.28571415000000000;marker:none;visibility:visible;display:inline;overflow:visible;enable-background:accumulate"
     d="M 2 0 L 0 1 L 0 4 L 32 4 L 42.90625 4 L 42.90625 0 L 32 0 L 2 0 z "
     id="path3447" />
  <rect
     y="0"
     x="39.21875"
     height="4"
     width="3.687499"
     id="rect3926"
     style="color:#000000;fill:#417cbf;fill-opacity:1;fill-rule:nonzero;stroke:none;stroke-width:3;marker:none;visibility:visible;display:inline;overflow:visible;enable-background:accumulate;opacity:1;stroke-linecap:butt;stroke-linejoin:miter;stroke-miterlimit:4;stroke-dasharray:none;stroke-dashoffset:0;stroke-opacity:1" />
  <path
     style="fill:#8ab1ff;fill-opacity:1;fill-rule:nonzero"
     d="M 0,3 0,6 2,4 Z"
     id="path4298"
     inkscape:connector-curvature="0"
     sodipodi:nodetypes="cccc" />
  <path
     d="M 64,6 62,4 64,3 z"
     id="path3028"
     style="fill:#b1c2f3;fill-opacity:1"
     inkscape:connector-curvature="0" />
  <g
     id="g3043"
     inkscape:export-filename="folder.png"
     inkscape:export-xdpi="90"
     inkscape:export-ydpi="90"
     transform="translate(-0.625,0.082283)" />
  <g
     id="scalable"
     transform="matrix(1.0385892,0,0,1.0385892,1214.7222,1878.8121)"
     inkscape:label="#g3701"
     style="fill:#ffffff" />
  <path
     style="font-size:medium;font-style:normal;font-variant:normal;font-weight:normal;font-stretch:normal;text-indent:0;text-align:start;text-decoration:none;line-height:normal;letter-spacing:normal;word-spacing:normal;text-transform:none;direction:ltr;block-progression:tb;writing-mode:lr-tb;text-anchor:start;baseline-shift:baseline;color:#000000;fill:#213750;fill-opacity:1;stroke:none;stroke-width:3;marker:none;visibility:visible;display:inline;overflow:visible;enable-background:accumulate;font-family:Sans;-inkscape-font-specification:Sans"
     d="M 39.1875 4 C 31.053996 15.770026 26.59375 29.727514 26.59375 39 L 26.59375 40.5 L 28.09375 40.5 L 36.9375 40.5 C 36.253699 42.70633 35.90985 45.185573 35.8125 47.78125 C 28.415872 48.105541 20.71788 46.591086 12.65625 43.15625 L 11.46875 45.9375 C 19.810226 49.49157 27.942562 51.094171 35.78125 50.78125 C 35.823465 51.979243 35.92909 53.199699 36.0625 54.40625 C 36.439458 57.815439 37.155763 61.123782 38.09375 64 L 41.25 64 C 40.245656 61.202379 39.427867 57.680732 39.03125 54.09375 C 38.901352 52.918955 38.848673 51.729608 38.8125 50.5625 C 44.357947 49.983867 49.744 48.433118 54.96875 45.90625 L 53.65625 43.1875 C 48.829895 45.52169 43.885844 46.955945 38.8125 47.53125 C 38.949588 44.441219 39.448505 41.633219 40.375 39.625 L 41.34375 37.5 L 39 37.5 L 29.78125 37.5 C 30.22933 28.688062 34.797419 15.00829 42.90625 4 L 39.1875 4 z M 43 18.84375 L 43 26.3125 L 46 26.3125 L 46 18.84375 L 43 18.84375 z M 18 19 L 18 26.5 L 21 26.5 L 21 19 L 18 19 z "
     id="path3840" />
</svg>

<svg xmlns="http://www.w3.org/2000/svg" viewBox="0 0 64 64"><g color="#000"><path d="m0 4v30 28l2 2h30 30l2-2v-28-30h-32-32" fill="#9cb0e7"/><path d="m0 4v30 28l2 2h30 7.625c-2.532-7.439-3.496-18.776-.625-25h-10.906c0-8.994 4.629-23.298 12.969-35h-9.06-32" fill="#3b74cd"/><path d="m2 0l-2 1v3h32 32v-3l-2-1h-30-30" fill="#c7d4ff"/><path d="m2 0l-2 1v3h32 10.906v-4h-10.906-30" fill="#6f9fff"/><path fill="#417cbf" d="m39.22 0h3.687v4h-3.687z"/></g><path d="m0 3v3l2-2" fill="#8ab1ff"/><path d="m64 6l-2-2 2-1z" fill="#b1c2f3"/><path d="m39.19 4c-8.134 11.77-12.594 25.728-12.594 35v1.5h1.5 8.844c-.684 2.206-1.028 4.686-1.125 7.281-7.397.324-15.09-1.19-23.16-4.625l-1.188 2.781c8.341 3.554 16.474 5.157 24.313 4.844.042 1.198.148 2.418.281 3.625.377 3.409 1.093 6.718 2.031 9.594h3.156c-1-2.798-1.822-6.319-2.219-9.906-.13-1.175-.183-2.364-.219-3.531 5.545-.579 10.932-2.129 16.16-4.656l-1.313-2.719c-4.826 2.334-9.77 3.768-14.844 4.344.137-3.09.636-5.898 1.563-7.906l.969-2.125h-2.344-9.219c.448-8.812 5.02-22.492 13.13-33.5h-3.719m3.813 14.844v7.469h3v-7.469h-3m-25 .156v7.5h3v-7.5h-3" color="#000" fill="#213750"/></svg>
